www/assets/icons/shop_two.svg

<svg xmlns="http://www.w3.org/2000/svg" width="24" height="24" viewBox="0 0 24 24" fill='currentColor'><path d="M3 9.5H1v11c0 1.11.89 2 2 2h14c1.11 0 2-.89 2-2H3zm15-4v-2c0-1.11-.89-2-2-2h-4c-1.11 0-2 .89-2 2v2H5v11c0 1.11.89 2 2 2h14c1.11 0 2-.89 2-2v-11zm-6-2h4v2h-4zm0 12v-7l5.5 3z"/></svg>

<svg width="24" height="24" viewBox="0 0 24 24" xmlns="http://www.w3.org/2000/svg" fill='currentColor'><path d="M3 9.5H1V20.5C1 21.61 1.89 22.5 3 22.5H17C18.11 22.5 19 21.61 19 20.5H3V9.5ZM18 5.5V3.5C18 2.39 17.11 1.5 16 1.5H12C10.89 1.5 10 2.39 10 3.5V5.5H5V16.5C5 17.61 5.89 18.5 7 18.5H21C22.11 18.5 23 17.61 23 16.5V5.5H18ZM12 3.5H16V5.5H12V3.5ZM12 15.5V8.5L17.5 11.5L12 15.5Z"/></svg>
